img/svg/prev.svg

<svg xmlns="http://www.w3.org/2000/svg" preserveAspectRatio="xMidYMid" width="34" height="34" viewBox="0 0 34 34"><defs><style>.cls-2 { fill: #ffffff; }</style></defs><path d="M16.984 33.969c-9.365 0-16.984-7.62-16.984-16.985 0-9.365 7.619-16.984 16.984-16.984 9.365 0 16.985 7.619 16.985 16.984 0 9.365-7.62 16.985-16.985 16.985zm0-30.95c-7.7 0-13.965 6.265-13.965 13.965 0 7.701 6.265 13.965 13.965 13.965 7.701 0 13.965-6.264 13.965-13.965 0-7.7-6.264-13.965-13.965-13.965zm2.703 20.404c-.295.295-.681.442-1.068.442-.386 0-.772-.147-1.067-.442l-5.875-5.876c-.59-.589-.59-1.545 0-2.134l5.875-5.876c.59-.589 1.545-.589 2.135 0 .59.59.59 1.546 0 2.135l-4.808 4.808 4.808 4.808c.59.59.59 1.545 0 2.135z" id="path-1" class="cls-2" fill-rule="evenodd"/></svg>

<svg xmlns="http://www.w3.org/2000/svg" xmlns:xlink="http://www.w3.org/1999/xlink" preserveAspectRatio="xMidYMid" width="34" height="34" viewBox="0 0 34 34">
  <defs>
    <style>

      .cls-2 {
        fill: #ffffff;
      }
    </style>
  </defs>
  <path d="M16.984,33.969 C7.619,33.969 -0.000,26.349 -0.000,16.984 C-0.000,7.619 7.619,-0.000 16.984,-0.000 C26.349,-0.000 33.969,7.619 33.969,16.984 C33.969,26.349 26.349,33.969 16.984,33.969 ZM16.984,3.019 C9.284,3.019 3.019,9.284 3.019,16.984 C3.019,24.685 9.284,30.949 16.984,30.949 C24.685,30.949 30.949,24.685 30.949,16.984 C30.949,9.284 24.685,3.019 16.984,3.019 ZM19.687,23.423 C19.392,23.718 19.006,23.865 18.619,23.865 C18.233,23.865 17.847,23.718 17.552,23.423 C17.552,23.423 11.677,17.547 11.677,17.547 C11.087,16.958 11.087,16.002 11.677,15.413 C11.677,15.413 17.552,9.537 17.552,9.537 C18.142,8.948 19.097,8.948 19.687,9.537 C20.277,10.127 20.277,11.083 19.687,11.672 C19.687,11.672 14.879,16.480 14.879,16.480 C14.879,16.480 19.687,21.288 19.687,21.288 C20.277,21.878 20.277,22.833 19.687,23.423 Z" id="path-1" class="cls-2" fill-rule="evenodd"/>
</svg>
